!!!COM: Music21
!!!OTL: Marcha Procesional de Liñeiro
!!!OMV: pezas_marchas_marcha-procesional-de-lineiro_marcha-procesional-de-lineiro-partitura.musicxml
**kern
*I"Bagpipes
*I'Bag
*clefG^2
*k[]
*M2/4
=1
!LO:TX:a:t=Andante
2gg
=
2cc
=
2aaM
=
4.cc
24aaLL
24bb
24aaJJ
=
[2gg
=
4gg]
8ee
24ffLL
24gg
24ffJJ
=
4ee
8ddL
8ccJ
=
8bL
8ccJ
8ddL
8bJ
=
[2cc
=
2cc]
=||
*M2/4
!LO:TX:a:t=Andante
2gg
=
2cc
!!linebreak:original
=
2aaM
=
4.cc
24aaLL
24bb
24aaJJ
=
[2gg
=
4gg]
8ee
24ffLL
24gg
24ffJJ
=
4ee
8ddL
8ccJ
=
8bL
8ccJ
8ddL
8bJ
=
[2cc
=
2cc]
=||
4cc
8cc
24ddLL
24cc
24bJJ
=
[2dd
=
2dd_
=
2dd]
!!linebreak:original
=
4dd
8dd
24eeLL
24dd
24ccJJ
=
[2ee
=
2ee_
=
4ee]
8ccL
8eeJ
=
8cccL
8bbJ
8aaL
8ggJ
=
8ffL
8eeJ
8ddL
8ggJ
=
4.ee
8gg
=
8eeL
8ggJ
8ddL
8ggJ
=||
[2cc
=
2cc_
=
2cc]
!!linebreak:original
=||
4cc
8cc
24ddLL
24cc
24bJJ
=
[2dd
=
2dd_
=
2dd]
=
4dd
8dd
24eeLL
24dd
24ccJJ
=
[2ee
=
2ee_
=
4ee]
8ccL
8eeJ
=
8cccL
8bbJ
8aaL
8ggJ
=
8ffL
8eeJ
8ddL
8ggJ
=
4.ee
8gg
!!linebreak:original
=
8eeL
8ggJ
8ddL
8ggJ
=||
[2cc
=
2cc_
=
2cc]
=||
*-
